48/mimes/application-x-n64-rom.svg

<?xml version="1.0" encoding="UTF-8" standalone="no"?>
<!-- Created with Inkscape (http://www.inkscape.org/) -->

<svg
   xmlns:dc="http://purl.org/dc/elements/1.1/"
   xmlns:cc="http://creativecommons.org/ns#"
   xmlns:rdf="http://www.w3.org/1999/02/22-rdf-syntax-ns#"
   xmlns:svg="http://www.w3.org/2000/svg"
   xmlns="http://www.w3.org/2000/svg"
   xmlns:sodipodi="http://sodipodi.sourceforge.net/DTD/sodipodi-0.dtd"
   xmlns:inkscape="http://www.inkscape.org/namespaces/inkscape"
   width="48"
   height="48"
   viewBox="0 0 12.7 12.7"
   version="1.1"
   id="svg2634"
   inkscape:version="0.92.4 5da689c313, 2019-01-14"
   sodipodi:docname="application-x-firmware.svg">
  <title
     id="title3250">Boston Icons</title>
  <defs
     id="defs2628" />
  <sodipodi:namedview
     id="base"
     pagecolor="#ffffff"
     bordercolor="#00ffed"
     borderopacity="1"
     inkscape:pageopacity="1"
     inkscape:pageshadow="2"
     inkscape:zoom="11.2"
     inkscape:cx="30.903699"
     inkscape:cy="23.005718"
     inkscape:document-units="px"
     inkscape:current-layer="layer1"
     showgrid="false"
     showguides="false"
     inkscape:guide-bbox="true"
     fit-margin-top="0"
     fit-margin-left="0"
     fit-margin-right="0"
     fit-margin-bottom="0"
     inkscape:window-width="1920"
     inkscape:window-height="1016"
     inkscape:window-x="0"
     inkscape:window-y="27"
     inkscape:window-maximized="1"
     units="px">
    <inkscape:grid
       type="xygrid"
       id="grid3182"
       spacingx="0.26458333"
       spacingy="0.26458333"
       empspacing="4"
       originx="-82.550004"
       originy="-127.00001"
       dotted="false" />
    <sodipodi:guide
       position="-4.268358e-06,27.516666"
       orientation="1,0"
       id="guide3216"
       inkscape:locked="false" />
    <sodipodi:guide
       position="32.279157,-4.1479283e-06"
       orientation="0,1"
       id="guide3222"
       inkscape:locked="false" />
    <sodipodi:guide
       position="13.229163,0.52915746"
       orientation="0,1"
       id="guide3226"
       inkscape:locked="false" />
    <sodipodi:guide
       position="6.3499965,7.9374908"
       orientation="1,0"
       id="guide3238"
       inkscape:locked="false" />
    <sodipodi:guide
       position="13.75833,1.0583241"
       orientation="0,1"
       id="guide3246"
       inkscape:locked="false" />
    <sodipodi:guide
       position="5.8208298,12.170824"
       orientation="0,1"
       id="guide864"
       inkscape:locked="false" />
    <sodipodi:guide
       position="12.699995,10.847905"
       orientation="1,0"
       id="guide868"
       inkscape:locked="false" />
    <sodipodi:guide
       position="2.1166616,12.170822"
       orientation="1,0"
       id="guide1119"
       inkscape:locked="false" />
    <sodipodi:guide
       position="10.583328,11.112488"
       orientation="1,0"
       id="guide1121"
       inkscape:locked="false" />
    <sodipodi:guide
       position="13.493745,6.879155"
       orientation="0.70710678,0.70710678"
       id="guide1123"
       inkscape:locked="false" />
    <sodipodi:guide
       position="7.9374949,9.7895716"
       orientation="1,0"
       id="guide1129"
       inkscape:locked="false" />
    <sodipodi:guide
       position="8.4666615,9.5249883"
       orientation="0,1"
       id="guide1131"
       inkscape:locked="false" />
    <sodipodi:guide
       position="3.4395782,8.2020716"
       orientation="1,0"
       id="guide1138"
       inkscape:locked="false" />
    <sodipodi:guide
       position="9.2604115,7.1437383"
       orientation="1,0"
       id="guide1140"
       inkscape:locked="false" />
    <sodipodi:guide
       position="4.2333282,10.318738"
       orientation="0,1"
       id="guide1142"
       inkscape:locked="false" />
    <sodipodi:guide
       position="4.7624949,8.466655"
       orientation="0,1"
       id="guide1152"
       inkscape:locked="false" />
    <sodipodi:guide
       position="5.2916616,3.704155"
       orientation="0,1"
       id="guide849"
       inkscape:locked="false" />
  </sodipodi:namedview>
  <metadata
     id="metadata2631">
    <rdf:RDF>
      <cc:Work
         rdf:about="">
        <dc:format>image/svg+xml</dc:format>
        <dc:type
           rdf:resource="http://purl.org/dc/dcmitype/StillImage" />
        <dc:title>Boston Icons</dc:title>
        <cc:license
           rdf:resource="dribbble.com/chrisdiaz" />
        <dc:creator>
          <cc:Agent>
            <dc:title>Christian Díaz</dc:title>
          </cc:Agent>
        </dc:creator>
        <dc:date>2019</dc:date>
        <dc:publisher>
          <cc:Agent>
            <dc:title>Christian Díaz</dc:title>
          </cc:Agent>
        </dc:publisher>
        <dc:identifier>christiandiaz.design [at] gmail [dot] com</dc:identifier>
        <dc:subject>
          <rdf:Bag>
            <rdf:li>GNOME icon Theme</rdf:li>
          </rdf:Bag>
        </dc:subject>
        <dc:description>diazchris.deviantart.com | dribbble.com/chrisdiaz</dc:description>
      </cc:Work>
    </rdf:RDF>
  </metadata>
  <g
     inkscape:label="Capa 1"
     inkscape:groupmode="layer"
     id="layer1"
     transform="translate(-82.550003,-157.3)">
    <g
       id="g839">
      <path
         inkscape:connector-curvature="0"
         id="path1125"
         d="m 84.666665,157.82918 h 6.085416 l 2.38125,2.38125 v 9.26041 h -8.466666 z"
         style="fill:#96a5af;fill-opacity:1;stroke:none;stroke-width:0.26458332px;stroke-linecap:butt;stroke-linejoin:miter;stroke-opacity:1" />
      <path
         sodipodi:nodetypes="cccccc"
         inkscape:connector-curvature="0"
         id="path1127"
         d="m 84.931248,158.09376 h 5.688547 l 2.248958,2.24895 -5e-6,8.86355 h -7.9375 z"
         style="fill:#ffffff;stroke:none;stroke-width:0.26458332px;stroke-linecap:butt;stroke-linejoin:miter;stroke-opacity:1" />
      <path
         id="rect1133"
         transform="matrix(0.26458333,0,0,0.26458333,82.550003,157.3)"
         d="m 30,2 v 9 1 h 1 9 V 11 H 31 V 2 Z"
         style="opacity:1;fill:#96a5af;fill-opacity:1;fill-rule:nonzero;stroke:none;stroke-width:1.99999988;stroke-linecap:square;stroke-linejoin:bevel;stroke-miterlimit:4;stroke-dasharray:none;stroke-dashoffset:35;stroke-opacity:1"
         inkscape:connector-curvature="0" />
      <path
         id="rect868"
         transform="matrix(0.26458333,0,0,0.26458333,82.550003,157.3)"
         d="m 19,15 v 3 h -2 v 1 h -3 v 2 h 3 v 1 h -3 v 2 h 3 v 1 h -3 v 2 h 3 v 1 h -3 v 2 h 3 v 2 h 1 v 3 h 2 v -3 h 1 v 3 h 2 v -3 h 1 v 3 h 2 v -3 h 1 v 3 h 2 v -3 h 2 v -1 h 3 v -2 h -3 v -1 h 3 v -2 h -3 v -1 h 3 v -2 h -3 v -1 h 3 v -2 h -3 v -2 h -1 v -3 h -2 v 3 h -1 v -3 h -2 v 3 h -1 v -3 h -2 v 3 h -1 v -3 z m -1,4 H 30 V 31 H 18 Z m 1,1 V 30 H 29 V 20 Z m 1,1 h 8 v 8 h -8 z m 1,1 v 2 h 3 v -2 z m 0,3 v 1 h 2 v -1 z m 3,0 v 1 h 1 v -1 z"
         style="opacity:1;fill:#96a5af;fill-opacity:1;fill-rule:nonzero;stroke:none;stroke-width:1.99999988;stroke-linecap:square;stroke-linejoin:bevel;stroke-miterlimit:4;stroke-dasharray:none;stroke-dashoffset:35;stroke-opacity:1"
         inkscape:connector-curvature="0" />
    </g>
  </g>
</svg>

<?xml version="1.0" encoding="UTF-8" standalone="no"?>
<!-- Created with Inkscape (http://www.inkscape.org/) -->

<svg
   xmlns:dc="http://purl.org/dc/elements/1.1/"
   xmlns:cc="http://creativecommons.org/ns#"
   xmlns:rdf="http://www.w3.org/1999/02/22-rdf-syntax-ns#"
   xmlns:svg="http://www.w3.org/2000/svg"
   xmlns="http://www.w3.org/2000/svg"
   xmlns:sodipodi="http://sodipodi.sourceforge.net/DTD/sodipodi-0.dtd"
   xmlns:inkscape="http://www.inkscape.org/namespaces/inkscape"
   width="48"
   height="48"
   viewBox="0 0 12.7 12.7"
   version="1.1"
   id="svg2634"
   inkscape:version="0.92.4 5da689c313, 2019-01-14"
   sodipodi:docname="application-x-firmware.svg">
  <title
     id="title3250">Boston Icons</title>
  <defs
     id="defs2628" />
  <sodipodi:namedview
     id="base"
     pagecolor="#ffffff"
     bordercolor="#00ffed"
     borderopacity="1"
     inkscape:pageopacity="1"
     inkscape:pageshadow="2"
     inkscape:zoom="11.2"
     inkscape:cx="7.6447701"
     inkscape:cy="24.166432"
     inkscape:document-units="px"
     inkscape:current-layer="layer1"
     showgrid="false"
     showguides="false"
     inkscape:guide-bbox="true"
     fit-margin-top="0"
     fit-margin-left="0"
     fit-margin-right="0"
     fit-margin-bottom="0"
     inkscape:window-width="1920"
     inkscape:window-height="1016"
     inkscape:window-x="0"
     inkscape:window-y="27"
     inkscape:window-maximized="1"
     units="px">
    <inkscape:grid
       type="xygrid"
       id="grid3182"
       spacingx="0.26458333"
       spacingy="0.26458333"
       empspacing="4"
       originx="-82.550004"
       originy="-127.00001"
       dotted="false" />
    <sodipodi:guide
       position="-4.268358e-06,27.516666"
       orientation="1,0"
       id="guide3216"
       inkscape:locked="false" />
    <sodipodi:guide
       position="32.279157,-4.1479283e-06"
       orientation="0,1"
       id="guide3222"
       inkscape:locked="false" />
    <sodipodi:guide
       position="13.229163,0.52915746"
       orientation="0,1"
       id="guide3226"
       inkscape:locked="false" />
    <sodipodi:guide
       position="6.3499965,7.9374908"
       orientation="1,0"
       id="guide3238"
       inkscape:locked="false" />
    <sodipodi:guide
       position="13.75833,1.0583241"
       orientation="0,1"
       id="guide3246"
       inkscape:locked="false" />
    <sodipodi:guide
       position="5.8208298,12.170824"
       orientation="0,1"
       id="guide864"
       inkscape:locked="false" />
    <sodipodi:guide
       position="12.699995,10.847905"
       orientation="1,0"
       id="guide868"
       inkscape:locked="false" />
    <sodipodi:guide
       position="2.1166616,12.170822"
       orientation="1,0"
       id="guide1119"
       inkscape:locked="false" />
    <sodipodi:guide
       position="10.583328,11.112488"
       orientation="1,0"
       id="guide1121"
       inkscape:locked="false" />
    <sodipodi:guide
       position="13.493745,6.879155"
       orientation="0.70710678,0.70710678"
       id="guide1123"
       inkscape:locked="false" />
    <sodipodi:guide
       position="7.9374949,9.7895716"
       orientation="1,0"
       id="guide1129"
       inkscape:locked="false" />
    <sodipodi:guide
       position="8.4666615,9.5249883"
       orientation="0,1"
       id="guide1131"
       inkscape:locked="false" />
    <sodipodi:guide
       position="3.4395782,8.2020716"
       orientation="1,0"
       id="guide1138"
       inkscape:locked="false" />
    <sodipodi:guide
       position="9.2604115,7.1437383"
       orientation="1,0"
       id="guide1140"
       inkscape:locked="false" />
    <sodipodi:guide
       position="4.2333282,10.318738"
       orientation="0,1"
       id="guide1142"
       inkscape:locked="false" />
    <sodipodi:guide
       position="4.7624949,8.466655"
       orientation="0,1"
       id="guide1152"
       inkscape:locked="false" />
    <sodipodi:guide
       position="5.2916616,3.704155"
       orientation="0,1"
       id="guide849"
       inkscape:locked="false" />
  </sodipodi:namedview>
  <metadata
     id="metadata2631">
    <rdf:RDF>
      <cc:Work
         rdf:about="">
        <dc:format>image/svg+xml</dc:format>
        <dc:type
           rdf:resource="http://purl.org/dc/dcmitype/StillImage" />
        <dc:title>Boston Icons</dc:title>
        <cc:license
           rdf:resource="dribbble.com/chrisdiaz" />
        <dc:creator>
          <cc:Agent>
            <dc:title>Christian Díaz</dc:title>
          </cc:Agent>
        </dc:creator>
        <dc:date>2019</dc:date>
        <dc:publisher>
          <cc:Agent>
            <dc:title>Christian Díaz</dc:title>
          </cc:Agent>
        </dc:publisher>
        <dc:identifier>christiandiaz.design [at] gmail [dot] com</dc:identifier>
        <dc:subject>
          <rdf:Bag>
            <rdf:li>GNOME icon Theme</rdf:li>
          </rdf:Bag>
        </dc:subject>
        <dc:description>diazchris.deviantart.com | dribbble.com/chrisdiaz</dc:description>
      </cc:Work>
    </rdf:RDF>
  </metadata>
  <g
     inkscape:label="Capa 1"
     inkscape:groupmode="layer"
     id="layer1"
     transform="translate(-82.550003,-157.3)">
    <g
       id="g839">
      <path
         inkscape:connector-curvature="0"
         id="path1125"
         d="m 84.666665,157.82918 h 6.085416 l 2.38125,2.38125 v 9.26041 h -8.466666 z"
         style="fill:#a8b4bd;stroke:none;stroke-width:0.26458332px;stroke-linecap:butt;stroke-linejoin:miter;stroke-opacity:1;fill-opacity:1" />
      <path
         sodipodi:nodetypes="cccccc"
         inkscape:connector-curvature="0"
         id="path1127"
         d="m 84.931248,158.09376 h 5.688547 l 2.248958,2.24895 -5e-6,8.86355 h -7.9375 z"
         style="fill:#ffffff;stroke:none;stroke-width:0.26458332px;stroke-linecap:butt;stroke-linejoin:miter;stroke-opacity:1" />
      <path
         id="rect1133"
         transform="matrix(0.26458333,0,0,0.26458333,82.550003,157.3)"
         d="M 30 2 L 30 11 L 30 12 L 31 12 L 40 12 L 40 11 L 31 11 L 31 2 L 30 2 z "
         style="opacity:1;fill:#a8b4bd;fill-opacity:1;fill-rule:nonzero;stroke:none;stroke-width:1.99999988;stroke-linecap:square;stroke-linejoin:bevel;stroke-miterlimit:4;stroke-dasharray:none;stroke-dashoffset:35;stroke-opacity:1" />
      <path
         id="rect868"
         transform="matrix(0.26458333,0,0,0.26458333,82.550003,157.3)"
         d="M 19 15 L 19 18 L 17 18 L 17 19 L 14 19 L 14 21 L 17 21 L 17 22 L 14 22 L 14 24 L 17 24 L 17 25 L 14 25 L 14 27 L 17 27 L 17 28 L 14 28 L 14 30 L 17 30 L 17 32 L 18 32 L 18 35 L 20 35 L 20 32 L 21 32 L 21 35 L 23 35 L 23 32 L 24 32 L 24 35 L 26 35 L 26 32 L 27 32 L 27 35 L 29 35 L 29 32 L 31 32 L 31 31 L 34 31 L 34 29 L 31 29 L 31 28 L 34 28 L 34 26 L 31 26 L 31 25 L 34 25 L 34 23 L 31 23 L 31 22 L 34 22 L 34 20 L 31 20 L 31 18 L 30 18 L 30 15 L 28 15 L 28 18 L 27 18 L 27 15 L 25 15 L 25 18 L 24 18 L 24 15 L 22 15 L 22 18 L 21 18 L 21 15 L 19 15 z M 18 19 L 30 19 L 30 31 L 18 31 L 18 19 z M 19 20 L 19 30 L 29 30 L 29 20 L 19 20 z M 20 21 L 28 21 L 28 29 L 20 29 L 20 21 z M 21 22 L 21 24 L 24 24 L 24 22 L 21 22 z M 21 25 L 21 26 L 23 26 L 23 25 L 21 25 z M 24 25 L 24 26 L 25 26 L 25 25 L 24 25 z "
         style="opacity:1;fill:#a8b4bd;fill-opacity:1;fill-rule:nonzero;stroke:none;stroke-width:1.99999988;stroke-linecap:square;stroke-linejoin:bevel;stroke-miterlimit:4;stroke-dasharray:none;stroke-dashoffset:35;stroke-opacity:1" />
    </g>
  </g>
</svg>
